X:1
T:Hutchby, 66.66.88
T:Hutchby, 66.66.88
T:Ronald Alan Matthews, 1985
T:© 1990 RAM Music Publications Courtesy of the Cyber Hymnal™
C:Ronald Alan Matthews, 1985
Z:© 1990 RAM Music Publications
Z:Courtesy of the Cyber Hymnal™
%%score ( 1 2 ) ( 3 4 )
L:1/8
Q:1/4=110
M:4/4
K:C
V:1 treble 
V:2 treble 
V:3 bass 
V:4 bass 
V:1
 [DG]2 | [Gc]2 [EG]2 [CA]2 F2 | G6 [CE]2 | [CF]2 [EG]2 A2 [Dc]2 | B6 [^GB]2 | %5
 [Ec]2 [EG]2 [CA]2 F2 | G6 [CE]2 | [DG]2 [EA]2 [Ac]2 [GB]2 | [Gc]6 [EG]2 | %9
 [EA]2 [DG]2 [EA]2 [GB]2 | [Gc]2 B2 [EA]2 [^GB]2 | [Ac]2 [Gc]2 [_Bd]2 [Ac]2 | [Gc]2 [GB]2 [Gc]2 |] %13
V:2
 x2 | x6 (FE) | (D4 C2) x2 | x4 (FE) x2 | (E2 ^D2 E2) x2 | x6 (FE) | (D4 C2) x2 | x8 | x8 | x8 | %10
 x2 (^GF) x4 | x8 | x6 |] %13
V:3
 [G,B,]2 | [E,C]2 (CB,) [F,A,]2 [A,C]2 | [G,C]2 [F,B,]2 [E,G,]2 G,2 | %3
 [A,,F,]2 (CB,) [C,A,]2 [F,A,]2 | ([E,^G,]2 [^F,A,]2 [G,B,]2) (ED) | %5
 [A,C]2 [E,C]2 ([F,A,][G,B,]) [A,C]2 | ([G,C]2 [F,B,]2 [E,G,]2) [C,G,]2 | %7
 [B,,G,]2 [A,,C]2 [F,,E]2 [G,,D]2 | [C,E]6 C2 | [A,C]2 [E,B,]2 [A,C]2 D2 | %10
 [E,C]2 [G,D]2 [A,C]2 [E,E]2 | [A,E]2 [CE]2 [_B,F]2 (FE) | (DE) [G,F]2 [CE]2 |] %13
V:4
 x2 | x2 C,2 x4 | x6 (C,B,,) | x2 C,2 x4 | x6 E,2 | x8 | x8 | x8 | x6 C2 | x6 (G,F,) | x8 | %11
 x6 F,2 | G,2 x4 |] %13

